X: 21554
T: Kilfenora Lass, The
R: jig
M: 6/8
K: Adorian
|:eAA BAA|eAA ABd|eAA B2A|BGG GBd|
eAA BAA|eAA ABd|efe dBA|BGG GBd:|
|:gfg efg|fag fed|gfg efg|f2d def|
gfg efg|fag fed|efe dBA|BGG GBd:|

